svg/transport/aerial_lift_line.svg

<?xml version="1.0" encoding="UTF-8"?>
<svg width="24px" height="24px" viewBox="0 0 24 24" version="1.1" xmlns="http://www.w3.org/2000/svg" xmlns:xlink="http://www.w3.org/1999/xlink">
    <title>aerial_lift_line</title>
    <g id="页面-1" stroke="none" stroke-width="1" fill="none" fill-rule="evenodd">
        <g id="Transport" transform="translate(-240.000000, -96.000000)">
            <g id="aerial_lift_line" transform="translate(240.000000, 96.000000)">
                 <path d="M24,0 L24,24 L0,24 L0,0 L24,0 Z M12.5934901,23.257841 L12.5819402,23.2595131 L12.5108777,23.2950439 L12.4918791,23.2987469 L12.4918791,23.2987469 L12.4767152,23.2950439 L12.4056548,23.2595131 C12.3958229,23.2563662 12.3870493,23.2590235 12.3821421,23.2649074 L12.3780323,23.275831 L12.360941,23.7031097 L12.3658947,23.7234994 L12.3769048,23.7357139 L12.4804777,23.8096931 L12.4953491,23.8136134 L12.4953491,23.8136134 L12.5071152,23.8096931 L12.6106902,23.7357139 L12.6232938,23.7196733 L12.6232938,23.7196733 L12.6266527,23.7031097 L12.609561,23.275831 C12.6075724,23.2657013 12.6010112,23.2592993 12.5934901,23.257841 L12.5934901,23.257841 Z M12.8583906,23.1452862 L12.8445485,23.1473072 L12.6598443,23.2396597 L12.6498822,23.2499052 L12.6498822,23.2499052 L12.6471943,23.2611114 L12.6650943,23.6906389 L12.6699349,23.7034178 L12.6699349,23.7034178 L12.678386,23.7104931 L12.8793402,23.8032389 C12.8914285,23.8068999 12.9022333,23.8029875 12.9078286,23.7952264 L12.9118235,23.7811639 L12.8776777,23.1665331 C12.8752882,23.1545897 12.8674102,23.1470016 12.8583906,23.1452862 L12.8583906,23.1452862 Z M12.1430473,23.1473072 C12.1332178,23.1423925 12.1221763,23.1452606 12.1156365,23.1525954 L12.1099173,23.1665331 L12.0757714,23.7811639 C12.0751323,23.7926639 12.0828099,23.8018602 12.0926481,23.8045676 L12.108256,23.8032389 L12.3092106,23.7104931 L12.3186497,23.7024347 L12.3186497,23.7024347 L12.3225043,23.6906389 L12.340401,23.2611114 L12.337245,23.2485176 L12.337245,23.2485176 L12.3277531,23.2396597 L12.1430473,23.1473072 Z" id="MingCute" fill-rule="nonzero"></path>
                <path d="M19.9974,2.9288 C20.0367,3.47968 19.622,3.95815 19.0711,3.9975 L12.9999,4.43116 L12.9999,7.00004 L16.3819,7.00004 C17.1394,7.00004 17.8319,7.42805 18.1707,8.10562 L20.1985,12.1612 C20.7579,13.2801 20.8776,14.568 20.534,15.7708 L19.1686,20.5495 C18.9233,21.4081 18.1386,21.9999969 17.2456,21.9999969 L6.7542,21.9999969 C5.86124,21.9999969 5.07647,21.4081 4.83115,20.5495 L3.46582,15.7708 C3.12216,14.568 3.24186,13.2801 3.80131,12.1612 L5.82908,8.10562 C6.16786,7.42805 6.86039,7.00004 7.61793,7.00004 L10.9999,7.00004 L10.9999,4.57402 L5.07115,4.9975 C4.52026,5.03685 4.04179,4.62217 4.00244,4.07129 C3.96309,3.52041 4.37777,3.04193 4.92865,3.00258 L18.9287,2.00258 C19.4795,1.96324 19.958,2.37791 19.9974,2.9288 Z M11.9992,9.00004 L7.61793,9.00004 L5.61793,13 L18.3819,13 L16.3819,9.00004 L12.0006,9.00004 C12.0008,9.00004 12.0004,9.00004 12.0006,9.00004 C12.0004,9.00004 11.9994,9.00004 11.9992,9.00004 Z M5.33463,15 C5.34985,15.0742 5.36793,15.1481 5.38887,15.2214 L6.7542,20 L17.2456,20 L18.6109,15.2214 C18.6319,15.1481 18.6499,15.0742 18.6652,15 L5.33463,15 Z" id="形状" fill="#09244B"></path>
            </g>
        </g>
    </g>
</svg>

<svg xmlns="http://www.w3.org/2000/svg" width="24" height="24"><g fill="none" fill-rule="evenodd"><path d="M24 0v24H0V0h24ZM12.593 23.258l-.011.002-.071.035-.02.004-.014-.004-.071-.035c-.01-.004-.019-.001-.024.005l-.004.01-.017.428.005.02.01.013.104.074.015.004.012-.004.104-.074.012-.016.004-.017-.017-.427c-.002-.01-.009-.017-.017-.018Zm.265-.113-.013.002-.185.093-.01.01-.003.011.018.43.005.012.008.007.201.093c.012.004.023 0 .029-.008l.004-.014-.034-.614c-.003-.012-.01-.02-.02-.022Zm-.715.002a.023.023 0 0 0-.027.006l-.006.014-.034.614c0 .012.007.02.017.024l.015-.002.201-.093.01-.008.004-.011.017-.43-.003-.012-.01-.01-.184-.092Z"/><path fill="#09244B" d="M19.997 2.929a1 1 0 0 1-.926 1.069L13 4.43V7h3.382a2 2 0 0 1 1.789 1.106l2.027 4.055a5 5 0 0 1 .336 3.61l-1.365 4.778A2 2 0 0 1 17.246 22H6.754a2 2 0 0 1-1.923-1.45l-1.365-4.78a5 5 0 0 1 .335-3.609L5.83 8.106A2 2 0 0 1 7.618 7H11V4.574l-5.929.423a1 1 0 1 1-.142-1.994l14-1a1 1 0 0 1 1.068.926ZM12 9H7.618l-2 4h12.764l-2-4h-4.383Zm-6.664 6c.015.074.033.148.054.221L6.754 20h10.492l1.365-4.779c.02-.073.039-.147.054-.221H5.335Z"/></g></svg>
